src/assets/Devices/PS5 Back-paddles.svg

<svg width="952" height="638" viewBox="0 0 952 638" fill="none" xmlns="http://www.w3.org/2000/svg">
<path d="M241.416 41.1086C200.345 26.567 166.285 39.1028 159.273 41.1086C152.261 43.1143 137.235 50.6359 137.736 63.1717C138.136 73.2004 132.226 81.3905 129.221 84.232C127.551 76.7104 125.915 56.5525 132.727 36.094M132.727 36.094C150.592 26.7339 197.34 10.4205 241.416 20.0481L246.926 11.0229M132.727 36.094H123.711M110.188 54.1464C110.188 118.832 176.804 120.837 204.852 116.826C232.901 112.814 263.955 98.2727 264.957 71.6966C265.758 50.4358 265.291 31.7489 264.957 25.0631M254.439 26.5674V63.6736C254.439 71.8244 253.337 81.7675 247.595 90.2497M122.709 49.6335C123.21 72.6995 126.215 79.2181 136.734 94.2612C147.252 109.304 185.318 113.316 217.875 107.299C233.361 104.436 242.387 97.9441 247.595 90.2497M248.428 15.0344C248.762 21.8874 249.53 38.4013 249.931 49.6335C250.432 63.6736 250.269 82.2267 247.595 90.2497" stroke="white"/>
<path d="M707.168 41.1086C748.239 26.567 782.299 39.1028 789.311 41.1086C796.323 43.1143 811.349 50.6359 810.848 63.1717C810.448 73.2004 816.358 81.3905 819.363 84.232C821.033 76.7104 822.669 56.5525 815.857 36.094M815.857 36.094C797.992 26.7339 751.244 10.4205 707.168 20.0481L701.658 11.0229M815.857 36.094H824.873M838.396 54.1464C838.396 118.832 771.78 120.837 743.732 116.826C715.683 112.814 684.629 98.2727 683.627 71.6966C682.826 50.4358 683.293 31.7489 683.627 25.0631M694.145 26.5674V63.6736C694.145 71.8244 695.247 81.7675 700.989 90.2497M825.875 49.6335C825.374 72.6995 822.369 79.2181 811.85 94.2612C801.332 109.304 763.266 113.316 730.709 107.299C715.223 104.436 706.197 97.9441 700.989 90.2497M700.156 15.0344C699.822 21.8874 699.054 38.4013 698.653 49.6335C698.152 63.6736 698.315 82.2267 700.989 90.2497" stroke="white"/>
<path d="M123.71 32.0151V49.7465C119.499 50.8246 115.299 51.9337 111.114 53.075C84.902 100.544 27.5694 232.789 7.93464 382.016C-14.2996 551 42.9964 640.484 92.0812 634.74C130.648 630.227 155.692 613.68 183.24 538.966C188.227 525.442 192.343 513.068 196.069 501.871C212.923 451.209 221.763 424.638 266.886 424.638H685.114C730.237 424.638 739.077 451.209 755.931 501.871C759.657 513.068 763.773 525.442 768.76 538.966C796.308 613.68 821.352 630.227 859.919 634.74C909.004 640.484 966.3 551 944.065 382.016C924.431 232.789 867.098 100.544 840.886 53.075C836.252 51.8114 831.601 50.5871 826.935 49.4009V32.0151C819.923 25.6636 798.285 11.4563 767.832 5.43908C737.379 -0.578144 711.734 5.94051 702.719 9.952L699.4 25.6133C607.051 13.6516 523.254 12.5525 479.756 12.4656V12.4587C478.546 12.4587 477.293 12.4591 476 12.4602C474.707 12.4591 473.454 12.4587 472.244 12.4587V12.4656C428.539 12.5529 344.15 13.6621 251.281 25.7847L247.927 9.952C238.911 5.94051 213.266 -0.578144 182.813 5.43908C152.36 11.4563 130.722 25.6636 123.71 32.0151Z" stroke="white" stroke-width="6"/>
<path d="M405.061 25.0165L398.937 19.4981C456.2 17.3178 489.539 17.3029 549.703 19.5L543.573 25.0229C541.762 26.6551 539.382 27.528 536.944 27.4628C488.696 26.1718 459.962 26.0955 411.707 27.4563C409.263 27.5252 406.877 26.6523 405.061 25.0165Z" stroke="white"/>
<path d="M455.788 181.594C373.826 182.109 288.103 185.822 251.432 212.6C213.213 240.509 200.827 266.801 182.025 306.712C179.882 311.26 177.656 315.985 175.299 320.91C152.259 369.048 128.217 434.234 115.195 490.395C102.172 546.556 98.666 580.152 98.666 599.207V633.806L111.188 631.298C110.353 614.751 109.084 571.026 118.701 528.504C130.722 475.352 148.753 404.148 187.32 324.921C188.597 322.299 189.856 319.703 191.101 317.134C213.233 271.479 231.053 234.718 269.463 217.113C310.034 198.517 399.69 197.557 436.755 197.557H513.889C550.954 197.557 640.61 198.517 681.18 217.113C719.59 234.718 737.411 271.479 759.543 317.134C760.788 319.703 762.047 322.299 763.323 324.921C801.891 404.148 819.922 475.352 831.943 528.504C841.56 571.026 840.291 614.751 839.456 631.298L851.978 633.806V599.207C851.978 580.152 848.472 546.556 835.449 490.395C822.426 434.234 798.385 369.048 775.344 320.91C772.987 315.985 770.761 311.26 768.619 306.712C749.817 266.801 737.431 240.509 699.212 212.6C662.541 185.822 576.818 182.109 494.856 181.594V181.511C488.416 181.511 481.895 181.511 475.322 181.522C468.749 181.511 462.228 181.511 455.788 181.511V181.594Z" stroke="white" stroke-width="2"/>
<path d="M218.375 265.752C235.906 265.752 235.405 269.262 236.907 279.792C238.41 290.322 248.928 360.523 249.429 379.578C249.93 398.632 249.93 412.673 231.398 433.733" stroke="white"/>
<path d="M733.402 265.752C715.872 265.752 716.373 269.262 714.87 279.792C713.367 290.322 702.849 360.523 702.348 379.578C701.847 398.632 701.847 412.673 720.38 433.733" stroke="white"/>
<path d="M448.275 355.509C448.275 352.739 450.521 350.493 453.291 350.493H499.359C502.129 350.493 504.375 352.739 504.375 355.509C504.375 358.279 502.129 360.525 499.359 360.525H453.291C450.521 360.525 448.275 358.279 448.275 355.509Z" stroke="white"/>
<path d="M448.275 381.584C448.275 375.49 453.215 370.551 459.308 370.551H493.342C499.435 370.551 504.375 375.49 504.375 381.584C504.375 387.677 499.435 392.617 493.342 392.617H459.308C453.215 392.617 448.275 387.677 448.275 381.584Z" stroke="white"/>
</svg>

<svg width="952" height="638" fill="none" xmlns="http://www.w3.org/2000/svg"><path d="M241.415 41.109c-41.071-14.542-75.131-2.006-82.143 0-7.012 2.005-22.038 9.527-21.537 22.063.4 10.028-5.51 18.219-8.515 21.06-1.67-7.522-3.306-27.68 3.506-48.138m0 0c17.865-9.36 64.613-25.674 108.689-16.046l5.51-9.025M132.726 36.094h-9.016m-13.523 18.052c0 64.686 66.616 66.691 94.664 62.68 28.049-4.012 59.103-18.553 60.105-45.13.801-21.26.334-39.947 0-46.633m-10.518 1.504v37.107c0 8.15-1.102 18.093-6.844 26.576M122.708 49.633c.501 23.066 3.506 29.585 14.025 44.628 10.518 15.043 48.584 19.055 81.141 13.038 15.486-2.863 24.512-9.355 29.72-17.05m.833-75.215c.334 6.853 1.102 23.367 1.503 34.6.501 14.04.338 32.593-2.336 40.616m459.574-49.141c41.071-14.542 75.131-2.006 82.143 0 7.012 2.005 22.038 9.527 21.537 22.063-.4 10.028 5.51 18.219 8.515 21.06 1.67-7.522 3.306-27.68-3.506-48.138m0 0c-17.865-9.36-64.613-25.674-108.689-16.046l-5.51-9.025m114.199 25.071h9.016m13.523 18.052c0 64.686-66.616 66.691-94.664 62.68-28.049-4.012-59.103-18.553-60.105-45.13-.801-21.26-.334-39.947 0-46.633m10.518 1.504v37.107c0 8.15 1.102 18.093 6.844 26.576m124.886-40.617c-.501 23.066-3.506 29.585-14.025 44.628-10.518 15.043-48.584 19.055-81.141 13.038-15.486-2.863-24.512-9.355-29.72-17.05m-.833-75.215c-.334 6.853-1.102 23.367-1.503 34.6-.501 14.04-.338 32.593 2.336 40.616" stroke="#fff"/><path d="M123.71 32.015v17.731a835.192 835.192 0 0 0-12.596 3.329C84.902 100.544 27.569 232.789 7.934 382.016-14.3 551 42.997 640.484 92.082 634.74c38.567-4.513 63.611-21.06 91.159-95.774 4.987-13.524 9.103-25.898 12.829-37.095 16.854-50.662 25.694-77.233 70.817-77.233h418.228c45.123 0 53.963 26.571 70.817 77.233 3.726 11.197 7.842 23.571 12.829 37.095 27.548 74.714 52.592 91.261 91.159 95.774 49.085 5.744 106.381-83.74 84.146-252.724-19.634-149.227-76.967-281.472-103.179-328.941a835.902 835.902 0 0 0-13.951-3.674V32.015c-7.012-6.351-28.65-20.559-59.103-26.576-30.453-6.017-56.098.502-65.113 4.513l-3.32 15.661c-92.349-11.961-176.146-13.06-219.644-13.147v-.007L476 12.46l-3.756-.001v.007c-43.705.087-128.094 1.196-220.963 13.319l-3.354-15.833c-9.016-4.011-34.661-10.53-65.114-4.513-30.453 6.017-52.091 20.225-59.103 26.576Z" stroke="#fff" stroke-width="6"/><path d="m405.061 25.016-6.124-5.518c57.263-2.18 90.602-2.195 150.766.002l-6.13 5.523a9.53 9.53 0 0 1-6.629 2.44c-48.248-1.291-76.982-1.368-125.237-.007a9.537 9.537 0 0 1-6.646-2.44Z" stroke="#fff"/><path d="M455.789 181.594c-81.962.514-167.685 4.227-204.356 31.006-38.219 27.908-50.605 54.201-69.407 94.112-2.143 4.548-4.369 9.273-6.726 14.198-23.04 48.138-47.082 113.324-60.104 169.485-13.023 56.161-16.529 89.757-16.529 108.811v34.599l12.522-2.507c-.835-16.547-2.104-60.272 7.513-102.794 12.021-53.152 30.052-124.356 68.619-203.583 1.277-2.622 2.536-5.219 3.781-7.787 22.132-45.655 39.952-82.416 78.362-100.021 40.571-18.596 130.227-19.556 167.292-19.556h77.134c37.065 0 126.721.96 167.291 19.556 38.41 17.605 56.231 54.366 78.363 100.021 1.245 2.568 2.504 5.165 3.78 7.787 38.568 79.227 56.599 150.431 68.62 203.583 9.617 42.522 8.348 86.247 7.513 102.794l12.522 2.507v-34.599c0-19.054-3.506-52.65-16.529-108.811-13.023-56.161-37.064-121.347-60.105-169.485-2.357-4.925-4.583-9.65-6.725-14.198-18.802-39.911-31.188-66.204-69.407-94.112-36.671-26.779-122.394-30.492-204.356-31.006v-.083c-6.44 0-12.961 0-19.534.01-6.573-.01-13.094-.01-19.534-.01v.083Z" stroke="#fff" stroke-width="2"/><path d="M218.375 265.752c17.531 0 17.03 3.51 18.532 14.04 1.503 10.53 12.021 80.731 12.522 99.786.501 19.054.501 33.094-18.031 54.155m502.004-167.981c-17.53 0-17.029 3.51-18.532 14.04-1.503 10.53-12.021 80.731-12.522 99.786-.501 19.054-.501 33.094 18.032 54.155m-272.106-78.224a5.016 5.016 0 0 1 5.016-5.016h46.068a5.016 5.016 0 0 1 0 10.032H453.29a5.016 5.016 0 0 1-5.016-5.016Zm0 26.075c0-6.094 4.94-11.033 11.033-11.033h34.034c6.093 0 11.033 4.939 11.033 11.033 0 6.093-4.94 11.033-11.033 11.033h-34.034c-6.093 0-11.033-4.94-11.033-11.033Z" stroke="#fff"/></svg>
